app/static/icons/kitchen.svg

<?xml version="1.0" encoding="utf-8"?>
<!-- Generator: Adobe Illustrator 22.1.0, SVG Export Plug-In . SVG Version: 6.00 Build 0)  -->
<svg version="1.1" id="Outline_Old_Icons" xmlns="http://www.w3.org/2000/svg" xmlns:xlink="http://www.w3.org/1999/xlink" x="0px"
	 y="0px" viewBox="0 0 24 24" style="enable-background:new 0 0 24 24;" xml:space="preserve">
<g>
	<g>
		<path d="M22.5,21h-21C1.2,21,1,20.8,1,20.5v-18C1,2.2,1.2,2,1.5,2h21C22.8,2,23,2.2,23,2.5v18C23,20.8,22.8,21,22.5,21z M2,20h20
			V3H2V20z"/>
	</g>
	<g>
		<path d="M23.5,24h-23C0.2,24,0,23.8,0,23.5v-3C0,20.2,0.2,20,0.5,20h23c0.3,0,0.5,0.2,0.5,0.5v3C24,23.8,23.8,24,23.5,24z M1,23
			h22v-2H1V23z"/>
	</g>
	<g>
		<path d="M20.5,19h-17C3.2,19,3,18.8,3,18.5v-10C3,8.2,3.2,8,3.5,8h17C20.8,8,21,8.2,21,8.5v10C21,18.8,20.8,19,20.5,19z M4,18h16
			V9H4V18z"/>
	</g>
	<g>
		<path d="M17.5,12h-11C6.2,12,6,11.8,6,11.5S6.2,11,6.5,11h11c0.3,0,0.5,0.2,0.5,0.5S17.8,12,17.5,12z"/>
	</g>
	<g>
		<path d="M15.5,7C14.7,7,14,6.3,14,5.5S14.7,4,15.5,4S17,4.7,17,5.5S16.3,7,15.5,7z M15.5,5C15.2,5,15,5.2,15,5.5S15.2,6,15.5,6
			S16,5.8,16,5.5S15.8,5,15.5,5z"/>
	</g>
	<g>
		<path d="M19.5,7C18.7,7,18,6.3,18,5.5S18.7,4,19.5,4S21,4.7,21,5.5S20.3,7,19.5,7z M19.5,5C19.2,5,19,5.2,19,5.5S19.2,6,19.5,6
			S20,5.8,20,5.5S19.8,5,19.5,5z"/>
	</g>
	<g>
		<path d="M12.5,7h-9C3.2,7,3,6.8,3,6.5v-2C3,4.2,3.2,4,3.5,4h9C12.8,4,13,4.2,13,4.5v2C13,6.8,12.8,7,12.5,7z M4,6h8V5H4V6z"/>
	</g>
	<g>
		<path d="M23.5,3h-23C0.2,3,0,2.8,0,2.5v-2C0,0.2,0.2,0,0.5,0h23C23.8,0,24,0.2,24,0.5v2C24,2.8,23.8,3,23.5,3z M1,2h22V1H1V2z"/>
	</g>
</g>
</svg>

<svg xmlns="http://www.w3.org/2000/svg" viewBox="0 0 24 24"><title>kitchen</title><path d="M22.5,21H1.5a.5.5,0,0,1-.5-.5V2.5A.5.5,0,0,1,1.5,2h21a.5.5,0,0,1,.5.5v18A.5.5,0,0,1,22.5,21ZM2,20H22V3H2Z"/><path d="M23.5,24H.5a.5.5,0,0,1-.5-.5v-3A.5.5,0,0,1,.5,20h23a.5.5,0,0,1,.5.5v3A.5.5,0,0,1,23.5,24ZM1,23H23V21H1Z"/><path d="M20.5,19H3.5a.5.5,0,0,1-.5-.5V8.5A.5.5,0,0,1,3.5,8h17a.5.5,0,0,1,.5.5v10A.5.5,0,0,1,20.5,19ZM4,18H20V9H4Z"/><path d="M17.5,12H6.5a.5.5,0,0,1,0-1h11a.5.5,0,0,1,0,1Z"/><path d="M15.5,7A1.5,1.5,0,1,1,17,5.5,1.5,1.5,0,0,1,15.5,7Zm0-2a.5.5,0,1,0,.5.5A.5.5,0,0,0,15.5,5Z"/><path d="M19.5,7A1.5,1.5,0,1,1,21,5.5,1.5,1.5,0,0,1,19.5,7Zm0-2a.5.5,0,1,0,.5.5A.5.5,0,0,0,19.5,5Z"/><path d="M12.5,7h-9A.5.5,0,0,1,3,6.5v-2A.5.5,0,0,1,3.5,4h9a.5.5,0,0,1,.5.5v2A.5.5,0,0,1,12.5,7ZM4,6h8V5H4Z"/><path d="M23.5,3H.5A.5.5,0,0,1,0,2.5V.5A.5.5,0,0,1,.5,0h23a.5.5,0,0,1,.5.5v2A.5.5,0,0,1,23.5,3ZM1,2H23V1H1Z"/></svg>
